X:610
T: LAUFET  IHR HIRTEN
N: E1946
O: Europa, Mitteleuropa, Deutschland, Schlesien, Glatz
R: geistlich, Fest - Lied, Weihnachten
M: 3/4
L: 1/8
K: G
d2 | B2G2d2 | B2G2
d2 | dcB2A2 | G2z2
d2 | B2G2d2 | B2G2
d2 | dcB2A2 | G2z2
dB | A2AGFG | A4
dB | A2AGFG | A4
d2 | d2B2d2 | d2B2
d2 | dcB2A2 | G2z2

